src/assets/images/meraki-aplicaciones.svg

<svg width="500" height="288" viewBox="0 0 500 288" fill="none" xmlns="http://www.w3.org/2000/svg">
<g clip-path="url(#clip0)">
<path d="M108.336 255.341C122.697 255.341 134.339 243.699 134.339 229.339C134.339 214.978 122.697 203.336 108.336 203.336C93.9752 203.336 82.3334 214.978 82.3334 229.339C82.3334 243.699 93.9752 255.341 108.336 255.341Z" fill="#F2F2F2"/>
<path d="M112.564 251.536C126.925 251.536 138.567 239.894 138.567 225.533C138.567 211.172 126.925 199.53 112.564 199.53C98.2033 199.53 86.5614 211.172 86.5614 225.533C86.5614 239.894 98.2033 251.536 112.564 251.536Z" fill="#F9A826"/>
<path d="M455.231 196.762H133.506V197.639H455.231V196.762Z" fill="#3F3D56"/>
<path d="M300.127 8.51448H185.935V6.16087H134.155V8.51448H19.4922C18.4778 8.51448 17.4734 8.71427 16.5363 9.10245C15.5991 9.49063 14.7476 10.0596 14.0303 10.7769C13.3131 11.4941 12.7441 12.3456 12.3559 13.2828C11.9677 14.2199 11.7679 15.2244 11.7679 16.2387V172.603C11.7679 174.652 12.5817 176.617 14.0303 178.065C15.4789 179.514 17.4436 180.328 19.4922 180.328H300.127C302.176 180.328 304.141 179.514 305.589 178.065C307.038 176.617 307.852 174.652 307.852 172.603V16.2387C307.852 15.2244 307.652 14.2199 307.264 13.2828C306.875 12.3456 306.306 11.4941 305.589 10.7769C304.872 10.0596 304.02 9.49063 303.083 9.10245C302.146 8.71427 301.142 8.51448 300.127 8.51448V8.51448Z" fill="#3F3D56"/>
<path d="M297.496 22.1654H22.1239V177.503H297.496V22.1654Z" fill="#F9A826"/>
<path d="M159.575 17.9289C161.134 17.9289 162.399 16.6644 162.399 15.1046C162.399 13.5447 161.134 12.2802 159.575 12.2802C158.015 12.2802 156.75 13.5447 156.75 15.1046C156.75 16.6644 158.015 17.9289 159.575 17.9289Z" fill="#F9A826"/>
<path opacity="0.1" d="M218.744 177.504H22.124V22.1656L218.744 177.504Z" fill="black"/>
<path d="M65.2113 165.879C79.83 165.879 91.6809 154.029 91.6809 139.41C91.6809 124.791 79.83 112.94 65.2113 112.94C50.5925 112.94 38.7417 124.791 38.7417 139.41C38.7417 154.029 50.5925 165.879 65.2113 165.879Z" fill="#F2F2F2"/>
<path d="M249.549 105.94H223.826V111.315H249.549V105.94Z" fill="#3F3D56"/>
<path d="M280.647 64.093H192.729V66.3965H280.647V64.093Z" fill="#3F3D56"/>
<path d="M280.647 71.3875H192.729V73.691H280.647V71.3875Z" fill="#3F3D56"/>
<path d="M280.647 78.682H192.729V80.9855H280.647V78.682Z" fill="#3F3D56"/>
<path d="M280.647 85.9765H192.729V88.28H280.647V85.9765Z" fill="#3F3D56"/>
<path d="M280.647 93.271H192.729V95.5745H280.647V93.271Z" fill="#3F3D56"/>
<path d="M280.647 25.3169H269.897V36.0667H280.647V25.3169Z" fill="#F2F2F2"/>
<path d="M285.638 41.0577H272.584V28.0043H285.638V41.0577ZM273.152 40.4901H285.07V28.5719H273.152V40.4901Z" fill="#3F3D56"/>
<path d="M315.584 174.679H288.709V172.743C288.709 172.692 288.699 172.642 288.68 172.596C288.661 172.549 288.632 172.507 288.597 172.471C288.561 172.436 288.519 172.407 288.472 172.388C288.425 172.369 288.376 172.359 288.325 172.359H279.111C279.061 172.359 279.011 172.369 278.964 172.388C278.917 172.407 278.875 172.436 278.84 172.471C278.804 172.507 278.776 172.549 278.756 172.596C278.737 172.642 278.727 172.692 278.727 172.743V174.679H272.968V172.743C272.968 172.692 272.958 172.642 272.939 172.596C272.92 172.549 272.891 172.507 272.856 172.471C272.82 172.436 272.778 172.407 272.731 172.388C272.685 172.369 272.635 172.359 272.584 172.359H263.37C263.32 172.359 263.27 172.369 263.223 172.388C263.177 172.407 263.134 172.436 263.099 172.471C263.063 172.507 263.035 172.549 263.015 172.596C262.996 172.642 262.986 172.692 262.986 172.743V174.679H257.227V172.743C257.227 172.692 257.218 172.642 257.198 172.596C257.179 172.549 257.151 172.507 257.115 172.471C257.079 172.436 257.037 172.407 256.99 172.388C256.944 172.369 256.894 172.359 256.844 172.359H247.629C247.579 172.359 247.529 172.369 247.483 172.388C247.436 172.407 247.394 172.436 247.358 172.471C247.322 172.507 247.294 172.549 247.275 172.596C247.255 172.642 247.246 172.692 247.246 172.743V174.679H241.487V172.743C241.487 172.692 241.477 172.642 241.457 172.596C241.438 172.549 241.41 172.507 241.374 172.471C241.339 172.436 241.296 172.407 241.25 172.388C241.203 172.369 241.153 172.359 241.103 172.359H231.889C231.838 172.359 231.788 172.369 231.742 172.388C231.695 172.407 231.653 172.436 231.617 172.471C231.581 172.507 231.553 172.549 231.534 172.596C231.515 172.642 231.505 172.692 231.505 172.743V174.679H225.746V172.743C225.746 172.692 225.736 172.642 225.717 172.596C225.697 172.549 225.669 172.507 225.633 172.471C225.598 172.436 225.555 172.407 225.509 172.388C225.462 172.369 225.412 172.359 225.362 172.359H216.148C216.097 172.359 216.048 172.369 216.001 172.388C215.954 172.407 215.912 172.436 215.876 172.471C215.841 172.507 215.812 172.549 215.793 172.596C215.774 172.642 215.764 172.692 215.764 172.743V174.679H210.005V172.743C210.005 172.692 209.995 172.642 209.976 172.596C209.957 172.549 209.928 172.507 209.893 172.471C209.857 172.436 209.815 172.407 209.768 172.388C209.722 172.369 209.672 172.359 209.621 172.359H200.407C200.357 172.359 200.307 172.369 200.26 172.388C200.214 172.407 200.171 172.436 200.136 172.471C200.1 172.507 200.072 172.549 200.052 172.596C200.033 172.642 200.023 172.692 200.023 172.743V174.679H194.264V172.743C194.264 172.692 194.254 172.642 194.235 172.596C194.216 172.549 194.188 172.507 194.152 172.471C194.116 172.436 194.074 172.407 194.027 172.388C193.981 172.369 193.931 172.359 193.88 172.359H121.703C121.653 172.359 121.603 172.369 121.556 172.388C121.51 172.407 121.467 172.436 121.432 172.471C121.396 172.507 121.368 172.549 121.348 172.596C121.329 172.642 121.319 172.692 121.319 172.743V174.679H115.56V172.743C115.56 172.692 115.55 172.642 115.531 172.596C115.512 172.549 115.484 172.507 115.448 172.471C115.412 172.436 115.37 172.407 115.323 172.388C115.277 172.369 115.227 172.359 115.176 172.359H105.962C105.912 172.359 105.862 172.369 105.815 172.388C105.769 172.407 105.727 172.436 105.691 172.471C105.655 172.507 105.627 172.549 105.608 172.596C105.588 172.642 105.578 172.692 105.578 172.743V174.679H99.8196V172.743C99.8196 172.692 99.8097 172.642 99.7904 172.596C99.7711 172.549 99.7428 172.507 99.7072 172.471C99.6715 172.436 99.6292 172.407 99.5826 172.388C99.536 172.369 99.4861 172.359 99.4357 172.359H90.2216C90.1711 172.359 90.1212 172.369 90.0746 172.388C90.0281 172.407 89.9857 172.436 89.9501 172.471C89.9144 172.507 89.8862 172.549 89.8669 172.596C89.8476 172.642 89.8376 172.692 89.8376 172.743V174.679H84.0788V172.743C84.0788 172.692 84.0689 172.642 84.0496 172.596C84.0303 172.549 84.002 172.507 83.9664 172.471C83.9307 172.436 83.8884 172.407 83.8418 172.388C83.7952 172.369 83.7453 172.359 83.6949 172.359H74.4808C74.4304 172.359 74.3804 172.369 74.3339 172.388C74.2873 172.407 74.245 172.436 74.2093 172.471C74.1737 172.507 74.1454 172.549 74.1261 172.596C74.1068 172.642 74.0969 172.692 74.0969 172.743V174.679H68.3381V172.743C68.3381 172.692 68.3281 172.642 68.3088 172.596C68.2895 172.549 68.2613 172.507 68.2256 172.471C68.19 172.436 68.1476 172.407 68.1011 172.388C68.0545 172.369 68.0046 172.359 67.9541 172.359H58.74C58.6896 172.359 58.6397 172.369 58.5931 172.388C58.5465 172.407 58.5042 172.436 58.4685 172.471C58.4329 172.507 58.4046 172.549 58.3853 172.596C58.366 172.642 58.3561 172.692 58.3561 172.743V174.679H52.5973V172.743C52.5973 172.692 52.5873 172.642 52.568 172.596C52.5487 172.549 52.5205 172.507 52.4848 172.471C52.4492 172.436 52.4068 172.407 52.3603 172.388C52.3137 172.369 52.2638 172.359 52.2133 172.359H42.9992C42.9488 172.359 42.8989 172.369 42.8523 172.388C42.8057 172.407 42.7634 172.436 42.7277 172.471C42.6921 172.507 42.6638 172.549 42.6445 172.596C42.6252 172.642 42.6153 172.692 42.6153 172.743V174.679H36.8565V172.743C36.8565 172.692 36.8465 172.642 36.8273 172.596C36.808 172.549 36.7797 172.507 36.744 172.471C36.7084 172.436 36.6661 172.407 36.6195 172.388C36.5729 172.369 36.523 172.359 36.4726 172.359H27.2584C27.208 172.359 27.1581 172.369 27.1115 172.388C27.0649 172.407 27.0226 172.436 26.987 172.471C26.9513 172.507 26.923 172.549 26.9037 172.596C26.8844 172.642 26.8745 172.692 26.8745 172.743V174.679H9.21412C6.77038 174.679 4.42674 175.65 2.69876 177.378C0.970774 179.106 2.32815e-06 181.449 0 183.893V188.06C6.98445e-06 190.503 0.970781 192.847 2.69876 194.575C4.42674 196.303 6.77039 197.274 9.21412 197.274H315.584C318.027 197.274 320.371 196.303 322.099 194.575C323.827 192.847 324.798 190.503 324.798 188.06V183.893C324.798 181.449 323.827 179.106 322.099 177.378C320.371 175.65 318.027 174.679 315.584 174.679Z" fill="#3F3D56"/>
<path d="M71.6185 155.942C65.021 155.942 58.5716 153.986 53.086 150.321C47.6004 146.655 43.3248 141.445 40.8001 135.35C38.2753 129.255 37.6147 122.548 38.9018 116.077C40.1889 109.606 43.3659 103.663 48.0311 98.9974C52.6962 94.3322 58.64 91.1552 65.1107 89.8681C71.5815 88.581 78.2886 89.2416 84.3839 91.7663C90.4792 94.2911 95.6889 98.5666 99.3543 104.052C103.02 109.538 104.976 115.987 104.976 122.585C104.966 131.429 101.448 139.907 95.1948 146.161C88.9412 152.415 80.4624 155.932 71.6185 155.942ZM71.6185 90.105C65.1946 90.105 58.915 92.0099 53.5737 95.5788C48.2324 99.1477 44.0694 104.22 41.6111 110.155C39.1528 116.09 38.5096 122.621 39.7628 128.921C41.016 135.222 44.1094 141.009 48.6518 145.551C53.1942 150.094 58.9815 153.187 65.282 154.44C71.5824 155.694 78.113 155.05 84.0479 152.592C89.9828 150.134 95.0555 145.971 98.6244 140.63C102.193 135.288 104.098 129.009 104.098 122.585C104.089 113.974 100.663 105.718 94.5744 99.6288C88.4853 93.5398 80.2297 90.1147 71.6185 90.105V90.105Z" fill="#3F3D56"/>
<path d="M369.203 14.6115H257.28V15.4893H369.203V14.6115Z" fill="#3F3D56"/>
<path d="M500 246.359H178.275V247.237H500V246.359Z" fill="#3F3D56"/>
<path d="M196.49 286.739H84.5667V287.617H196.49V286.739Z" fill="#3F3D56"/>
<path d="M219.019 241.731H206.729V254.021H219.019V241.731Z" fill="#F9A826"/>
<path d="M226.48 246.998H211.557V232.075H226.48V246.998ZM212.206 246.35H225.832V232.724H212.206V246.35Z" fill="#3F3D56"/>
<path d="M361.667 9.98389H349.377V22.2735H361.667V9.98389Z" fill="#F9A826"/>
<path d="M369.128 15.2509H354.205V0.327744H369.128V15.2509ZM354.854 14.602H368.479V0.976577H354.854V14.602Z" fill="#3F3D56"/>
<path d="M485.441 241.731H473.151V254.021H485.441V241.731Z" fill="#F9A826"/>
<path d="M492.902 246.998H477.979V232.075H492.902V246.998ZM478.628 246.35H492.254V232.724H478.628V246.35Z" fill="#3F3D56"/>
<path d="M464.009 102.138H462.965V73.5374C462.965 71.3636 462.537 69.2111 461.705 67.2028C460.873 65.1944 459.654 63.3696 458.117 61.8325C456.58 60.2954 454.755 59.0761 452.747 58.2443C450.738 57.4124 448.586 56.9842 446.412 56.9842H385.818C383.644 56.9842 381.492 57.4124 379.483 58.2443C377.475 59.0761 375.65 60.2954 374.113 61.8325C372.576 63.3696 371.357 65.1944 370.525 67.2028C369.693 69.2111 369.265 71.3636 369.265 73.5374V230.442C369.265 232.615 369.693 234.768 370.525 236.776C371.357 238.785 372.576 240.609 374.113 242.146C375.65 243.684 377.475 244.903 379.483 245.735C381.492 246.567 383.644 246.995 385.818 246.995H446.412C448.586 246.995 450.738 246.567 452.747 245.735C454.755 244.903 456.58 243.684 458.117 242.146C459.654 240.609 460.873 238.785 461.705 236.776C462.537 234.768 462.965 232.615 462.965 230.442V122.496H464.009V102.138Z" fill="#3F3D56"/>
<path d="M459.44 74.5103V231.186C459.441 234.464 458.139 237.609 455.821 239.928C453.503 242.246 450.359 243.549 447.08 243.55H386.194C382.915 243.549 379.771 242.246 377.453 239.928C375.135 237.609 373.833 234.464 373.834 231.186V74.5103C373.834 71.2324 375.137 68.0888 377.455 65.7709C379.772 63.4531 382.916 62.1508 386.194 62.1504H393.581C393.217 63.0421 393.079 64.0096 393.177 64.9675C393.275 65.9254 393.608 66.8444 394.145 67.6436C394.682 68.4428 395.408 69.0975 396.258 69.5502C397.108 70.003 398.056 70.2397 399.019 70.2397H433.733C434.696 70.2397 435.644 70.003 436.494 69.5503C437.344 69.0975 438.069 68.4428 438.607 67.6436C439.144 66.8444 439.476 65.9254 439.575 64.9675C439.673 64.0096 439.535 63.0421 439.171 62.1504H447.08C450.358 62.1508 453.502 63.4531 455.82 65.7709C458.137 68.0888 459.44 71.2324 459.44 74.5103V74.5103Z" fill="#F9A826"/>
<path d="M425.706 165.456H407.568V170.831H425.706V165.456Z" fill="#3F3D56"/>
<path d="M447.633 123.608H385.641V125.912H447.633V123.608Z" fill="#3F3D56"/>
<path d="M447.633 130.903H385.641V133.206H447.633V130.903Z" fill="#3F3D56"/>
<path d="M447.633 138.197H385.641V140.501H447.633V138.197Z" fill="#3F3D56"/>
<path d="M447.633 145.492H385.641V147.795H447.633V145.492Z" fill="#3F3D56"/>
<path d="M447.633 152.786H385.641V155.09H447.633V152.786Z" fill="#3F3D56"/>
<path d="M418.803 93.0174H408.053V103.767H418.803V93.0174Z" fill="#F2F2F2"/>
<path d="M412.168 95.7055V108.759H425.221V95.7055H412.168ZM424.655 108.193H412.734V96.2717H424.655V108.193Z" fill="#3F3D56"/>
<path opacity="0.1" d="M459.44 214.454V231.186C459.441 234.464 458.139 237.609 455.821 239.928C453.503 242.246 450.359 243.549 447.08 243.55H386.194C382.915 243.549 379.771 242.246 377.453 239.928C375.135 237.609 373.833 234.464 373.834 231.186V146.822L425.13 187.347L426.008 188.04L435.55 195.576L436.441 196.283L459.44 214.454Z" fill="black"/>
<path d="M411.37 238.472C422.004 238.472 430.624 229.852 430.624 219.218C430.624 208.584 422.004 199.964 411.37 199.964C400.736 199.964 392.116 208.584 392.116 219.218C392.116 229.852 400.736 238.472 411.37 238.472Z" fill="#F2F2F2"/>
<path d="M140.528 287.617C132.976 287.617 125.593 285.378 119.313 281.182C113.034 276.986 108.139 271.022 105.249 264.044C102.359 257.067 101.603 249.389 103.076 241.982C104.55 234.574 108.187 227.77 113.527 222.43C118.867 217.09 125.671 213.453 133.079 211.979C140.486 210.506 148.164 211.262 155.141 214.152C162.119 217.043 168.083 221.937 172.278 228.217C176.474 234.496 178.714 241.879 178.714 249.431C178.702 259.555 174.676 269.261 167.517 276.42C160.358 283.579 150.652 287.606 140.528 287.617ZM140.528 212.124C133.149 212.124 125.936 214.312 119.801 218.411C113.666 222.511 108.884 228.337 106.06 235.154C103.237 241.971 102.498 249.473 103.937 256.71C105.377 263.947 108.93 270.594 114.148 275.812C119.365 281.03 126.013 284.583 133.25 286.022C140.487 287.462 147.988 286.723 154.805 283.899C161.622 281.076 167.449 276.294 171.549 270.159C175.648 264.023 177.836 256.81 177.836 249.431C177.825 239.54 173.891 230.057 166.896 223.063C159.902 216.069 150.419 212.135 140.528 212.124V212.124Z" fill="#3F3D56"/>
<path d="M417.045 234.069C412.271 234.069 407.603 232.654 403.633 230.001C399.664 227.348 396.57 223.578 394.742 219.167C392.915 214.756 392.437 209.902 393.369 205.219C394.3 200.537 396.599 196.235 399.975 192.859C403.351 189.483 407.653 187.184 412.336 186.252C417.018 185.321 421.872 185.799 426.283 187.626C430.694 189.453 434.465 192.547 437.117 196.517C439.77 200.487 441.186 205.154 441.186 209.929C441.178 216.329 438.633 222.465 434.107 226.991C429.581 231.516 423.445 234.062 417.045 234.069V234.069ZM417.045 186.666C412.444 186.666 407.947 188.031 404.121 190.587C400.296 193.143 397.314 196.776 395.553 201.027C393.793 205.277 393.332 209.955 394.23 214.467C395.127 218.98 397.343 223.125 400.596 226.378C403.849 229.631 407.994 231.847 412.507 232.745C417.019 233.642 421.697 233.181 425.947 231.421C430.198 229.66 433.831 226.678 436.387 222.853C438.943 219.027 440.308 214.53 440.308 209.929C440.301 203.761 437.848 197.849 433.487 193.488C429.126 189.126 423.213 186.673 417.045 186.666Z" fill="#3F3D56"/>
</g>
<defs>
<clipPath id="clip0">
<rect y="0.327744" width="500" height="287.289" fill="white"/>
</clipPath>
</defs>
</svg>

<svg xmlns="http://www.w3.org/2000/svg" width="500" height="288" fill="none" xmlns:v="https://vecta.io/nano"><style><![CDATA[.B{fill:#3f3d56}.C{fill:#f9a826}.D{fill:#f2f2f2}]]></style><g clip-path="url(#A)"><path d="M108.336 255.34c14.36 0 26.003-11.642 26.003-26.002s-11.642-26.003-26.003-26.003-26.003 11.642-26.003 26.003 11.642 26.002 26.003 26.002z" class="D"/><path d="M112.564 251.536c14.36 0 26.003-11.642 26.003-26.003s-11.642-26.003-26.003-26.003-26.003 11.642-26.003 26.003 11.642 26.003 26.003 26.003z" class="C"/><g class="B"><path d="M455.23 196.762H133.506v.877H455.23v-.877zM300.127 8.514H185.935V6.16h-51.78v2.354H19.492c-1.014 0-2.02.2-2.956.588s-1.8.957-2.506 1.674a7.75 7.75 0 0 0-1.674 2.506c-.388.936-.588 1.942-.588 2.956v156.364c0 2.05.814 4.014 2.262 5.462s3.413 2.263 5.462 2.263h280.635a7.72 7.72 0 0 0 7.725-7.725V16.24c0-1.014-.2-2.02-.588-2.956a7.74 7.74 0 0 0-1.675-2.506c-.717-.717-1.57-1.286-2.506-1.674a7.72 7.72 0 0 0-2.956-.588h0z"/></g><g class="C"><path d="M297.496 22.165H22.124v155.338h275.372V22.165zm-137.92-4.235c1.56 0 2.824-1.264 2.824-2.824s-1.265-2.824-2.824-2.824-2.825 1.265-2.825 2.824 1.265 2.824 2.825 2.824z"/></g><path opacity=".1" d="M218.744 177.504H22.124V22.166l196.62 155.338z" fill="#000"/><path d="M65.21 165.88c14.62 0 26.47-11.85 26.47-26.47s-11.85-26.47-26.47-26.47-26.47 11.85-26.47 26.47 11.85 26.47 26.47 26.47z" class="D"/><g class="B"><path d="M249.55 105.94h-25.723v5.375h25.723v-5.375zm31.097-41.847H192.73v2.303h87.918v-2.303zm0 7.295H192.73v2.303h87.918v-2.303zm0 7.294H192.73v2.303h87.918v-2.303zm0 7.295H192.73v2.303h87.918v-2.303zm0 7.293H192.73v2.303h87.918V93.27z"/></g><path d="M280.647 25.317h-10.75v10.75h10.75v-10.75z" class="D"/><g class="B"><path d="M285.638 41.058h-13.054V28.004h13.054v13.053zm-12.486-.568h11.918V28.572h-11.918V40.5zm42.432 134.2H288.7v-1.936c0-.05-.01-.1-.03-.147a.39.39 0 0 0-.355-.237h-9.214c-.05 0-.1.01-.147.03a.38.38 0 0 0-.124.083c-.034.035-.064.078-.084.125a.37.37 0 0 0-.03.147v1.936h-5.76v-1.936c0-.05-.01-.1-.03-.147a.39.39 0 0 0-.208-.208c-.046-.02-.096-.03-.147-.03h-9.214c-.05 0-.1.01-.147.03a.38.38 0 0 0-.124.083c-.034.035-.064.078-.084.125a.37.37 0 0 0-.03.147v1.936h-5.76v-1.936c0-.05-.01-.1-.03-.147a.38.38 0 0 0-.083-.125.39.39 0 0 0-.125-.083c-.046-.02-.096-.03-.146-.03h-9.215c-.05 0-.1.01-.146.03a.39.39 0 0 0-.125.083c-.036.036-.064.078-.083.125a.39.39 0 0 0-.03.147v1.936h-5.76v-1.936c0-.05-.01-.1-.03-.147a.38.38 0 0 0-.083-.125c-.036-.035-.078-.064-.124-.083a.39.39 0 0 0-.147-.03h-9.214c-.05 0-.1.01-.147.03a.39.39 0 0 0-.125.083c-.036.036-.064.078-.083.125a.39.39 0 0 0-.03.147v1.936h-5.76v-1.936c0-.05-.01-.1-.03-.147s-.048-.1-.084-.125-.078-.064-.124-.083a.39.39 0 0 0-.147-.03h-9.214a.39.39 0 0 0-.355.237c-.02.046-.03.096-.03.147v1.936h-5.76v-1.936c0-.05-.01-.1-.03-.147a.39.39 0 0 0-.208-.208c-.046-.02-.096-.03-.147-.03h-9.214c-.05 0-.1.01-.147.03a.38.38 0 0 0-.124.083c-.034.035-.064.078-.084.125a.37.37 0 0 0-.03.147v1.936h-5.76v-1.936c0-.05-.01-.1-.03-.147a.38.38 0 0 0-.083-.125.39.39 0 0 0-.125-.083c-.046-.02-.096-.03-.147-.03h-72.177c-.05 0-.1.01-.147.03a.38.38 0 0 0-.124.083c-.034.035-.064.078-.084.125a.37.37 0 0 0-.03.147v1.936h-5.76v-1.936c0-.05-.01-.1-.03-.147a.38.38 0 0 0-.083-.125.39.39 0 0 0-.125-.083c-.046-.02-.096-.03-.147-.03h-9.214c-.05 0-.1.01-.147.03s-.088.048-.124.083-.064.078-.083.125a.39.39 0 0 0-.03.147v1.936H99.82v-1.936a.38.38 0 0 0-.029-.147c-.02-.047-.048-.1-.083-.125a.39.39 0 0 0-.272-.112h-9.214a.39.39 0 0 0-.271.112c-.036.036-.064.078-.083.125a.38.38 0 0 0-.029.147v1.936h-5.76v-1.936a.38.38 0 0 0-.029-.147c-.02-.047-.048-.1-.083-.125a.39.39 0 0 0-.271-.112H74.48a.39.39 0 0 0-.272.112c-.036.036-.064.078-.083.125a.38.38 0 0 0-.029.147v1.936h-5.76v-1.936a.38.38 0 0 0-.112-.272.39.39 0 0 0-.272-.112H58.74a.39.39 0 0 0-.272.112c-.036.036-.064.078-.083.125a.38.38 0 0 0-.029.147v1.936h-5.76v-1.936a.38.38 0 0 0-.112-.272.39.39 0 0 0-.272-.112H43a.39.39 0 0 0-.272.112c-.036.036-.064.078-.083.125a.38.38 0 0 0-.029.147v1.936h-5.76v-1.936a.38.38 0 0 0-.029-.147c-.02-.047-.048-.1-.083-.125s-.078-.064-.124-.083a.39.39 0 0 0-.147-.029H27.26a.39.39 0 0 0-.147.029c-.047.02-.1.048-.125.083a.38.38 0 0 0-.112.272v1.936H9.214c-2.444 0-4.787.97-6.515 2.7S0 181.45 0 183.893v4.167c0 2.443.97 4.787 2.7 6.515a9.22 9.22 0 0 0 6.515 2.7h306.37c2.443 0 4.787-.97 6.515-2.7a9.22 9.22 0 0 0 2.7-6.515v-4.167c0-2.444-.97-4.787-2.7-6.515a9.22 9.22 0 0 0-6.515-2.7zM71.62 155.942a33.36 33.36 0 0 1-18.532-5.621c-5.486-3.666-9.76-8.876-12.286-14.97s-3.185-12.802-1.898-19.273a33.36 33.36 0 0 1 9.129-17.08 33.37 33.37 0 0 1 17.08-9.13 33.36 33.36 0 0 1 34.244 14.184c3.666 5.486 5.622 11.935 5.622 18.533a33.4 33.4 0 0 1-9.78 23.576 33.39 33.39 0 0 1-23.576 9.78zm0-65.837a32.48 32.48 0 0 0-31.855 38.816c1.253 6.3 4.347 12.088 8.9 16.63s10.33 7.636 16.63 8.9a32.56 32.56 0 0 0 18.766-1.848 32.48 32.48 0 0 0 14.576-11.962 32.47 32.47 0 0 0 5.474-18.045 32.52 32.52 0 0 0-9.524-22.956c-6.09-6.09-14.347-9.515-22.957-9.525h0zm297.583-75.493H257.28v.878h111.923v-.878zM500 246.36H178.275v.878H500v-.878zm-303.5 40.38H84.567v.878H196.5v-.878z"/></g><path d="M219.02 241.73h-12.3v12.3h12.3v-12.3z" class="C"/><path d="M226.48 246.998h-14.923v-14.923h14.923v14.923zm-14.274-.648h13.626v-13.626h-13.626v13.626z" class="B"/><path d="M361.667 9.984h-12.3v12.3h12.3v-12.3z" class="C"/><path d="M369.128 15.25h-14.923V.328h14.923V15.25zm-14.274-.65h13.625V.977h-13.625v13.625z" class="B"/><path d="M485.44 241.73h-12.3v12.3h12.3v-12.3z" class="C"/><g class="B"><path d="M492.902 246.998H477.98v-14.923h14.923v14.923zm-14.274-.648h13.626v-13.626h-13.626v13.626zM464 102.138h-1.044v-28.6a16.55 16.55 0 0 0-1.26-6.335 16.54 16.54 0 0 0-3.588-5.37 16.57 16.57 0 0 0-5.37-3.588c-2.008-.832-4.16-1.26-6.335-1.26H385.82c-2.174 0-4.326.428-6.335 1.26a16.53 16.53 0 0 0-5.37 3.588 16.57 16.57 0 0 0-3.588 5.37 16.55 16.55 0 0 0-1.26 6.335v156.905a16.55 16.55 0 0 0 1.26 6.334 16.52 16.52 0 0 0 3.588 5.37 16.59 16.59 0 0 0 5.37 3.59 16.53 16.53 0 0 0 6.335 1.26h60.594c2.174 0 4.326-.428 6.335-1.26s3.833-2.05 5.37-3.6a16.57 16.57 0 0 0 3.588-5.37 16.55 16.55 0 0 0 1.26-6.334V122.496H464v-20.358z"/></g><path d="M459.44 74.5v156.676a12.36 12.36 0 0 1-3.619 8.742c-2.318 2.318-5.462 3.62-8.74 3.622h-60.886c-3.28-.001-6.423-1.304-8.74-3.622a12.36 12.36 0 0 1-3.619-8.742V74.5a12.36 12.36 0 0 1 12.36-12.36h7.387a5.87 5.87 0 0 0 .564 5.493 5.87 5.87 0 0 0 4.874 2.596h34.714c.963 0 1.91-.237 2.76-.69a5.88 5.88 0 0 0 3.081-4.583 5.87 5.87 0 0 0-.404-2.817h7.91c3.278 0 6.422 1.303 8.74 3.62s3.62 5.462 3.62 8.74h0z" class="C"/><g class="B"><path d="M425.706 165.456h-18.138v5.375h18.138v-5.375zm21.927-41.848H385.64v2.304h61.992v-2.304zm0 7.295H385.64v2.303h61.992v-2.303zm0 7.294H385.64v2.304h61.992v-2.304zm0 7.295H385.64v2.303h61.992v-2.303zm0 7.294H385.64v2.304h61.992v-2.304z"/></g><path d="M418.803 93.017h-10.75v10.75h10.75v-10.75z" class="D"/><path d="M412.168 95.706v13.054h13.053V95.706h-13.053zm12.487 12.487h-11.92v-11.92h11.92v11.92z" class="B"/><path opacity=".1" d="M459.44 214.454v16.732a12.36 12.36 0 0 1-3.619 8.742c-2.318 2.318-5.462 3.62-8.74 3.622h-60.886c-3.28-.001-6.423-1.304-8.74-3.622a12.36 12.36 0 0 1-3.619-8.742v-84.364l85.606 67.632z" fill="#000"/><path d="M411.37 238.472c10.634 0 19.254-8.62 19.254-19.254s-8.62-19.254-19.254-19.254-19.254 8.62-19.254 19.254 8.62 19.254 19.254 19.254z" class="D"/><g class="B"><path d="M140.528 287.617c-7.552 0-14.935-2.24-21.215-6.435a38.19 38.19 0 0 1 13.766-69.203 38.19 38.19 0 0 1 22.062 2.173c6.978 2.9 12.942 7.785 17.137 14.065a38.18 38.18 0 0 1 6.436 21.214 38.23 38.23 0 0 1-11.197 26.989c-7.16 7.16-16.865 11.186-27 11.197zm0-75.493a37.31 37.31 0 0 0-20.727 6.287c-6.135 4.1-10.917 9.926-13.74 16.743a37.32 37.32 0 0 0-2.123 21.556 37.31 37.31 0 0 0 10.211 19.102c5.217 5.218 11.865 8.77 19.102 10.2a37.3 37.3 0 0 0 21.555-2.123 37.31 37.31 0 0 0 23.031-34.468c-.01-9.9-3.945-19.374-10.94-26.368a37.35 37.35 0 0 0-26.368-10.939h0zm276.517 21.946a24.14 24.14 0 0 1-22.302-14.902 24.14 24.14 0 0 1 5.233-26.308c3.376-3.376 7.678-5.675 12.36-6.607s9.536-.453 13.947 1.374 8.182 4.92 10.834 8.9a24.14 24.14 0 0 1 4.069 13.412 24.17 24.17 0 0 1-24.141 24.14h0zm0-47.403c-4.6 0-9.098 1.365-12.924 3.92a23.26 23.26 0 0 0-8.568 10.44c-1.76 4.25-2.22 8.928-1.323 13.44s3.113 8.658 6.366 11.9 7.398 5.47 11.9 6.367a23.27 23.27 0 0 0 13.44-1.324c4.25-1.76 7.884-4.743 10.44-8.568a23.26 23.26 0 0 0 3.92-12.924c-.007-6.168-2.46-12.08-6.82-16.44s-10.274-6.815-16.442-6.822z"/></g></g><defs><clipPath id="A"><path fill="#fff" d="M0 .328h500v287.29H0z"/></clipPath></defs></svg>
